T: Kevin Miller's
M: 6/8
L: 1/8
K: Gmaj
|:BBB BGB|gfe dBG|egf edc|e2e gfd|
ded dBG|AGA BAG|AGA BAG| E3 Gca:||
|:ded dBd|gfe dcB|Ggg Aaa|B2B cBG|
Ggg Aaa|gfe dcB|gfg agf|e3 e3:||
